assets/icons/document/open-filled.svg

<?xml version="1.0" encoding="UTF-8" standalone="no"?>
<svg
   viewBox="0 0 24 24"
   height="24"
   width="24"
   version="1.1"
   id="svg4"
   sodipodi:docname="open-filled.svg"
   inkscape:version="1.2 (1:1.2.1+202207142221+cd75a1ee6d)"
   xmlns:inkscape="http://www.inkscape.org/namespaces/inkscape"
   xmlns:sodipodi="http://sodipodi.sourceforge.net/DTD/sodipodi-0.dtd"
   xmlns="http://www.w3.org/2000/svg"
   xmlns:svg="http://www.w3.org/2000/svg">
  <defs
     id="defs8" />
  <sodipodi:namedview
     id="namedview6"
     pagecolor="#ffffff"
     bordercolor="#666666"
     borderopacity="1.0"
     inkscape:pageshadow="2"
     inkscape:pageopacity="0.0"
     inkscape:pagecheckerboard="0"
     showgrid="true"
     inkscape:zoom="19.79899"
     inkscape:cx="-1.4142136"
     inkscape:cy="4.3689098"
     inkscape:window-width="1920"
     inkscape:window-height="1016"
     inkscape:window-x="0"
     inkscape:window-y="0"
     inkscape:window-maximized="1"
     inkscape:current-layer="svg4"
     inkscape:showpageshadow="2"
     inkscape:deskcolor="#d1d1d1">
    <inkscape:grid
       type="xygrid"
       id="grid825" />
    <inkscape:grid
       type="xygrid"
       id="grid822"
       dotted="true"
       spacingx="0.5"
       spacingy="0.5"
       empspacing="10" />
  </sodipodi:namedview>
  <path
     id="rect1466"
     style="fill:#808080;fill-rule:evenodd;stroke-width:0.5;stroke-linecap:square;fill-opacity:1"
     d="M 7 9 L 7 22 L 19 22 L 19 9 L 7 9 z M 10 12 L 16 12 L 16 13 L 10 13 L 10 12 z M 10 14 L 16 14 L 16 15 L 10 15 L 10 14 z M 10 16 L 13 16 L 13 17 L 10 17 L 10 16 z " />
  <path
     id="path858"
     style="color:#000000;fill:#808080;fill-opacity:1;stroke-linecap:round"
     d="M 5.4550781 3 C 4.4864982 3.00898 3.7372585 3.0732694 3.1171875 3.4453125 C 2.7038068 3.693341 2.3972495 4.1012205 2.2285156 4.6074219 C 2.0597819 5.1136233 2 5.7222238 2 6.5 L 2 17.5 C 2 18.277776 2.0585582 18.89131 2.25 19.408203 C 2.4414419 19.925097 2.8029638 20.335075 3.2773438 20.572266 C 3.9631664 20.915176 4.8229392 20.985219 6 20.998047 L 6 8 L 20 8 L 20 20.880859 C 20.321725 20.814579 20.616045 20.714746 20.882812 20.554688 C 21.296194 20.306659 21.602751 19.89878 21.771484 19.392578 C 21.940218 18.886377 22 18.277776 22 17.5 L 22 9.5 C 22 8.7222238 21.94022 8.1136233 21.771484 7.6074219 C 21.602751 7.1012205 21.296194 6.693341 20.882812 6.4453125 C 20.056052 5.9492557 18.999997 6 17.5 6 L 13.707031 6 L 10.853516 3.1464844 C 10.825736 3.1195754 10.794939 3.0959799 10.761719 3.0761719 C 10.751519 3.0699419 10.741089 3.0640777 10.730469 3.0585938 C 10.701799 3.0433348 10.671705 3.0309064 10.640625 3.0214844 C 10.634125 3.0193944 10.627644 3.017445 10.621094 3.015625 C 10.581524 3.005489 10.540854 3.000242 10.5 3 L 6.5 3 C 6.1250008 3 5.7779381 2.99701 5.4550781 3 z " />
</svg>

<svg height="24" width="24" xmlns="http://www.w3.org/2000/svg"><path style="fill:gray;stroke-width:.5;stroke-linecap:square;fill-opacity:1" d="M7 9v13h12V9H7zm3 3h6v1h-6v-1zm0 2h6v1h-6v-1zm0 2h3v1h-3v-1z"/><path style="color:#000;fill:gray;fill-opacity:1;stroke-linecap:round" d="M5.455 3c-.969.009-1.718.073-2.338.445-.413.248-.72.656-.888 1.162C2.059 5.114 2 5.722 2 6.5v11c0 .778.059 1.391.25 1.908.191.517.553.927 1.027 1.164.686.343 1.546.413 2.723.426V8h14v12.88c.322-.065.616-.165.883-.325.413-.248.72-.656.888-1.162.17-.507.229-1.115.229-1.893v-8c0-.778-.06-1.386-.229-1.893-.168-.506-.475-.914-.888-1.162C20.056 5.95 19 6 17.5 6h-3.793l-2.853-2.854a.5.5 0 0 0-.124-.087A.5.5 0 0 0 10.5 3h-4c-.375 0-.722-.003-1.045 0z"/></svg>
